icons/chevron-square-leftB.svg

<svg width="24" height="24" viewBox="0 0 24 24" fill="none" xmlns="http://www.w3.org/2000/svg">
<path d="M3 15V9C3 5.7 5.7 3 9 3H15C18.3 3 21 5.7 21 9V15C21 18.3 18.3 21 15 21H9C5.6 21 3 18.3 3 15Z" fill="black"/>
<path fill-rule="evenodd" clip-rule="evenodd" d="M9 3.75C6.11421 3.75 3.75 6.11421 3.75 9V15C3.75 17.894 6.02236 20.25 9 20.25H15C17.8858 20.25 20.25 17.8858 20.25 15V9C20.25 6.11421 17.8858 3.75 15 3.75H9ZM2.25 9C2.25 5.28579 5.28579 2.25 9 2.25H15C18.7142 2.25 21.75 5.28579 21.75 9V15C21.75 18.7142 18.7142 21.75 15 21.75H9C5.17764 21.75 2.25 18.706 2.25 15V9Z" fill="black"/>
<path fill-rule="evenodd" clip-rule="evenodd" d="M14.2303 7.76972C14.5232 8.06261 14.5232 8.53749 14.2303 8.83038L11.0607 12L14.1303 15.0697C14.4232 15.3626 14.4232 15.8375 14.1303 16.1304C13.8374 16.4233 13.3626 16.4233 13.0697 16.1304L9.86967 12.9304C9.56858 12.6293 9.49191 12.2115 9.5144 11.8966C9.53655 11.5865 9.66761 11.1953 10.0104 10.929L13.1697 7.76972C13.4626 7.47683 13.9374 7.47683 14.2303 7.76972Z" fill="white"/>
</svg>

<svg xmlns="http://www.w3.org/2000/svg" fill="none" viewBox="0 0 24 24">
  <path fill="#000" d="M3 15V9c0-3.3 2.7-6 6-6h6c3.3 0 6 2.7 6 6v6c0 3.3-2.7 6-6 6H9c-3.4 0-6-2.7-6-6Z"/>
  <path fill="#000" fill-rule="evenodd" d="M9 3.75C6.114 3.75 3.75 6.114 3.75 9v6c0 2.894 2.272 5.25 5.25 5.25h6c2.886 0 5.25-2.364 5.25-5.25V9c0-2.886-2.364-5.25-5.25-5.25H9ZM2.25 9c0-3.714 3.036-6.75 6.75-6.75h6c3.714 0 6.75 3.036 6.75 6.75v6c0 3.714-3.036 6.75-6.75 6.75H9c-3.822 0-6.75-3.044-6.75-6.75V9Z" clip-rule="evenodd"/>
  <path fill="#fff" fill-rule="evenodd" d="M14.23 7.77a.75.75 0 0 1 0 1.06L11.06 12l3.07 3.07a.75.75 0 0 1-1.06 1.06l-3.2-3.2c-.301-.3-.378-.719-.356-1.033.023-.31.154-.702.496-.968l3.16-3.16a.75.75 0 0 1 1.06 0Z" clip-rule="evenodd"/>
</svg>
